images/vectors/heart.svg

<svg height="512pt" viewBox="0 0 512 512" width="512pt" xmlns="http://www.w3.org/2000/svg"><path d="m467 45c-24.8125 0-45 20.1875-45 45v114.578125c-15.832031-5.570313-34.179688-2.039063-46.820312 10.601563l-112.253907 112.253906c-2.515625 2.515625-4.820312 5.1875-6.925781 7.984375-2.105469-2.796875-4.410156-5.46875-6.925781-7.984375l-112.253907-112.253906c-12.640624-12.640626-30.988281-16.171876-46.820312-10.601563v-114.578125c0-24.8125-20.1875-45-45-45s-45 20.1875-45 45v206.671875l75 144v71.328125h362v-71.328125l75-144v-206.671875c0-24.8125-20.1875-45-45-45zm-437 244.328125v-199.328125c0-8.269531 6.730469-15 15-15s15 6.730469 15 15v157.5c.140625 11.832031 4.800781 22.9375 13.179688 31.320312l112.210937 112.207032 21.210937-21.210938-112.207031-112.210937c-5.847656-5.847657-5.847656-15.363281 0-21.210938 5.847657-5.847656 15.363281-5.847656 21.210938 0l112.253906 112.25c8.472656 8.476563 13.140625 19.789063 13.140625 31.855469v101.5h-136v-48.671875zm452 0-75 144v48.671875h-136v-101.5c0-12.066406 4.667969-23.378906 13.140625-31.851562l112.253906-112.253907c2.832031-2.835937 6.597657-4.394531 10.605469-4.394531s7.773438 1.558594 10.605469 4.394531c2.832031 2.832031 4.394531 6.597657 4.394531 10.605469s-1.5625 7.773438-4.394531 10.605469l-112.207031 112.210937 21.210937 21.210938 112.210937-112.207032c8.644532-8.644531 13.019532-19.964843 13.144532-31.320312.035156 0 .035156-157.5.035156-157.5 0-8.269531 6.730469-15 15-15s15 6.730469 15 15zm0 0"/><path d="m256 291.933594 111.324219-111.324219c15.914062-15.914063 24.675781-37.066406 24.675781-59.570313 0-22.5-8.761719-43.65625-24.675781-59.566406-2.007813-2.007812-4.121094-3.917968-6.324219-5.71875v-55.753906h-90v45.226562c-5.324219 2.570313-10.335938 5.6875-15 9.332032-4.691406-3.664063-9.71875-6.792969-15-9.359375v-45.199219h-30v37.070312c-2.238281-.175781-4.488281-.269531-6.757812-.269531-7.976563 0-15.777344 1.121094-23.242188 3.25v-40.050781h-30v55.75c-2.1875 1.789062-4.300781 3.695312-6.324219 5.722656-32.847656 32.84375-32.847656 86.289063 0 119.132813zm-90.113281-209.246094c10.246093-10.246094 23.867187-15.886719 38.355469-15.886719 14.488281 0 28.109374 5.640625 38.351562 15.886719.726562.726562 1.445312 1.492188 2.203125 2.335938l11.203125 12.585937 11.203125-12.585937c.753906-.847657 1.476563-1.613282 2.199219-2.335938 6.042968-6.042969 13.210937-10.460938 21.300781-13.132812l10.296875-3.398438v-36.15625h30v41.351562l6.703125 4.453126c3.011719 1.996093 5.84375 4.3125 8.410156 6.882812 10.246094 10.242188 15.886719 23.863281 15.886719 38.351562 0 14.488282-5.640625 28.109376-15.886719 38.355469l-90.113281 90.113281-90.113281-90.113281c-21.148438-21.148437-21.148438-55.558593 0-76.707031zm0 0"/></svg>

<svg xmlns="http://www.w3.org/2000/svg" height="682.667" viewBox="0 0 512 512" width="682.667"><path d="M467 45c-24.812 0-45 20.188-45 45v114.578c-15.832-5.57-34.18-2.04-46.82 10.602L262.926 327.434c-2.516 2.516-4.82 5.188-6.926 7.984-2.105-2.797-4.4-5.47-6.926-7.984L136.82 215.18c-12.64-12.64-30.988-16.172-46.82-10.602V90c0-24.812-20.187-45-45-45S0 65.188 0 90v206.672l75 144V512h362v-71.328l75-144V90c0-24.812-20.187-45-45-45zM30 289.328V90c0-8.27 6.73-15 15-15s15 6.73 15 15v157.5c.14 11.832 4.8 22.938 13.18 31.32l112.2 112.207 21.2-21.2-112.207-112.2a15.02 15.02 0 0 1 0-21.211 15.02 15.02 0 0 1 21.211 0l112.254 112.25c8.473 8.477 13.14 19.8 13.14 31.855V482H105v-48.672zm452 0l-75 144V482H271V380.5c0-12.066 4.668-23.38 13.14-31.852l112.254-112.254C399.227 233.56 402.992 232 407 232s7.773 1.56 10.605 4.395a14.9 14.9 0 0 1 0 21.211l-112.207 112.2 21.2 21.2L438.82 278.82c8.645-8.645 13.02-19.965 13.145-31.32C452 247.5 452 90 452 90c0-8.27 6.73-15 15-15s15 6.73 15 15zm-226 2.606L367.324 180.6C383.238 164.695 392 143.543 392 121.04s-8.762-43.656-24.676-59.566a85.32 85.32 0 0 0-6.324-5.72V0h-90v45.227a82.76 82.76 0 0 0-15 9.332 84.03 84.03 0 0 0-15-9.359V0h-30v37.07a86.23 86.23 0 0 0-6.758-.27A84.65 84.65 0 0 0 181 40.051V0h-30v55.75a84.61 84.61 0 0 0-6.324 5.723c-32.848 32.844-32.848 86.3 0 119.133zM165.887 82.688C176.133 72.44 189.754 66.8 204.242 66.8s28.1 5.64 38.352 15.887c.727.727 1.445 1.492 2.203 2.336L256 97.6l11.203-12.586a54.34 54.34 0 0 1 2.2-2.336c6.043-6.043 13.2-10.46 21.3-13.133l10.297-3.4V30h30v41.352l6.703 4.453a54.33 54.33 0 0 1 8.41 6.883A53.86 53.86 0 0 1 362 121.04c0 14.5-5.64 28.1-15.887 38.355L256 249.508l-90.113-90.113c-21.148-21.148-21.148-55.56 0-76.707zm0 0"/></svg>
